X:1
T:James Gibb editions
T:Gli è pur gionto - Cara
T:#
%%score [ 1 2 3 4 ]
L:1/8
Q:1/4=150
M:none
K:C
V:1 treble nm="Alto" snm="A"
V:2 treble-8 nm="Tenor I" snm="T I"
V:3 treble-8 nm="Tenor II" snm="T II"
V:4 bass nm="Bass" snm="B"
V:1
"^Gli è pur giunto il giorno""^Marchetto Cara\n(c.1465-1525)" A8 A8 | G8 z4 (A4- | %2
w: Gli è|pur- gion\-|
 A2 G2 F2 E2) F8 | E8 E8 | G8 z4 c4- | c4 B4 c8 | B8 z4 A4- | A4 (^G2 ^F2) !courtesy!^G8 :| %8
w: * * * * to~~el|gior- no~~ai-|mè in\-|* fe- li-|ce~~e mal\-|* det\- * to|
 =G8 c8 | (B6 A2) G8 | A4 G4 A8 | (G6 A2) B4 E4 | (A2 G2 F2 E2) F8 | z4 (E2 D2 E2 F2 G2 A2) | %14
w: Che pian-|gen\- * do~~al|mi- o di-|spet\- * to mi|con\- * * * vien|par\- * * * * *|
 B8 A8 | ^G8 z8 | A8 A8 | G8 z4 (A4- | A2 G2 F2 E2) F8 | E8 E8 | G8 z4 c4- | c4 B4 c8 | B8 z4 A4- | %23
w: tir da|te.|Gli è|pur gion\-|* * * * to~~el|gior- no~~ai-|mè in\-|* fe- li-|ce~~e mal\-|
 A4 (^G2 ^F2) G8 | =G8 c8 | (B6 A2) G8 | (A4 G4) A8- | A4 (^G2 ^F2) (G4 A2 G2) | A4 (c6 B2 A2 G2 | %29
w: * det\- * to,|in- fe-|li\- * ce|e * ma\-|* le\- * det\- * *|to, in\- * * *|
 A8) A8 | (B12 A2 G2) | A4 (c6 B2) A4- | A4 (^G2 ^F2) G8 | A16 |] %34
w: * fe-|li\- * *|ce e * ma\-|* le\- * det-|to.|
V:2
 e8 e8 | e8 e8 | e8 d8 | c8 c8 | e8 a8 | z4 g8 f2 e2 | d4 (e8 d4) | e8 e8 :| (e8 a8) | %9
w: Gli è|pur- gion-|to el|gior- no|ai- mè|in- fe- h-|ce~~e mal\- *|det- to|Che *|
 z4 (g2 f2) (e2 d2 c2 B2) | c4 e8 d4 | e8 e8 | e4 A4 d8 | z4 c8- c4 | d4 (e8 d4) | e8 z8 | e8 e8 | %17
w: pian\- * gen\- * * *|do~~al mio di-|spet- to|mi con- vien|par\- *|tir da *|te.|Gli è|
 e8 e8 | e8 d8 | c8 c8 | e8 a8 | z4 g8 f2 e2 | d4 e8 d4 | e8 e8 | (e8 a8) | %25
w: pur gion-|to el|gior- no|ai- mè|in- fe- li-|ce~~e ma- le-|det- to,|in\- *|
 z4 (g2 f2) (e2 d2 c2 B2) | c4 e8 d4 | e8 e8 | z4 e4 e8 | (f4 g8 f4) | g4 (G2 A2 B2 c2 d2 e2 | %31
w: fe\- * li\- * * *|ce~~e ma- le-|det- to,|ìn- fe-|li\- * *|ce e * * * * *|
 f4) e8 d4 | e16 | e16 |] %34
w: * ma- le-|det-|to.|
V:3
 A8 c8 | z4 B4 c8 | B4 c4 A8 | A8 A8 | z4 (e6 d2) (e2 f2) | g8 e8 | z8 A8 | B4 c4 B8 :| %8
w: Gli è|pur- gion-|to el gior-|no~~ai- mè|in\- * fe\- *|li- ce~~e|ma-|le- det- to|
 B4 (e6 d2 e2 f2 | g4) (G6 A2 B4) | A4 B8 A4 | B4 (G6 A2) B4 | c8 A8 | z4 (A8 G2 F2) | G8 A8 | %15
w: Che pian\- * * *|* gen\- * *|do~~al mio di-|spet- to * mi|con- vien|par\- * *|tir da|
 B8 z8 | A8 c8 | z4 B4 c8 | B4 c4 A8 | A8 A8 | z4 (e6 d2) (e2 f2) | (g6 f2) e8 | z8 A8 | B4 c4 B8 | %24
w: te.|Gli è|pur gion-|to el gior-|no~~ai- mè|in\- * fe\- *|li\- * ce~~e|ma-|le- det- to,|
 (B4 e6 d2) (e2 f2) | g4 (G6 A2) B4 | (A4 B4 A2 B2 c2 A2 | B8) B8 | A8 A8 | z8 d8 | d8 (d8- | %31
w: in\- * * fe\- *|li- ce * e|ma\- * * * * *|* le-|det- to,|ma-|le- det\-|
 d4 e4 A8 | B16) | A16 |] %34
w: ||to.|
V:4
 A,,8 A,,8 | E,8 A,,8 | E,4 C,4 D,8 | A,,8 A,,8 | E,8 A,,8 | G,,8 (C,2 D,2 E,2 F,2) | G,4 E,4 F,8 | %7
w: Gli è|pur- gion-|to el gior-|no ai-|mè in-|fe- li\- * * *|ce~~e ma- le-|
 E,8 E,8 :| E,8 A,,8 | E,8 E,4 G,4 | F,4 E,4 F,8 | E,8 E,8 | A,,4 (D,2 C,2 D,2 E,2 F,2 G,2) | %13
w: det- to|Che pian-|gen- do al|mi- o di-|spet- to|mi con\- * * * * *|
 A,4 A,,4 (A,8 | G,4 E,4) F,8 | E,8 z8 | A,,8 A,,8 | E,8 A,,8 | E,4 C,4 D,8 | A,,8 A,,8 | %20
w: vien par- tir|* * da|te.|Gli è|pur gion-|to el gior-|no ai-|
 E,8 A,,8 | G,,8 (C,2 D,2 E,2 F,2) | G,4 E,4 F,8 | E,8 E,8 | E,8 A,,8 | E,8 E,4 G,4 | %26
w: mè in-|fe- li\- * * *|ce~~e ma- le-|det- to,|in- fe-|li- ce e|
 (F,4 E,4 F,8 | E,8) E,8 | A,,16 | D,16 | (G,12 F,2 E,2 | D,4 C,4) F,8 | E,16 | A,,16 |] %34
w: ma\- * *|* le-|det-|to,|ma\- * *|* * le-|det-|to.|

